X: 7228
T: Clan Wallace
R: strathspey
M: 4/4
K: Eminor
|:"Em"(3eBB B>A G>A B<g|g<f f>e d>e f<a|"G"f<e e>d B>A B<d|B<A G>A B<d "Em"e2:|
|:"Em"e>d g>f f<e a>g|f<e g>f f<e d2|"G"e>d e/2f/2g f<e d2|B<A G>A B<d "Em"e2:|

